X:1
T:[ID 11-29b]
T:[ID 11-29b]
T:Bezeichnung standardisiert: Walzer Nr 13 Walzer
T:Urheber unbekannt Datum in der hier transkribierten schriftlichen Quelle: vermutlich um 1800
C:Urheber unbekannt
C:Datum in der hier transkribierten schriftlichen Quelle: vermutlich um 1800
L:1/8
M:3/8
K:Bb
V:1 treble 
V:1
 F | (B/c/d/c/)B | f/=e/f/g/f | geb | f2 d | B/c/d/c/B | f/e/f/g/f |{e} f[Ad][Ad] | B2 ::{e} f | %10
 A2{e} f | B2 c/d/ | (f/e/)(e/d/)(e/f/) | ed"^1)"{e} f2 | A2{e} f | B2 c/d/ | e/d/e/c/A/c/ | B2 :: %18
 F | eeF | ddTF | AA"^1)" z F | BBTF | gg !fermata!z |"^1)" e2 z f |"^1)" e2 (ef).g | bf (d/f/) | %27
 (e/f/) (e/f/) (e/f/) | c2 f | (=ef).f | bfd | f/e/d/e/ c/A/ | B2 :| %33

